X: 1299
T: More Luck to Us
R:Reel
N:Collected by J. O'Neill
B:O'Neill's 1299
Z:Transcribed by Trish O'Neil
M:C|
L:1/8
K:D
(FE)|D2DFA2AB|AFdB AFDF|Eeede2(ef)|gefd BABc|
d2DFA2AB|AFdB AFDF|G2BGF2AF|EFGAB2||
A2|dcde dAFA|dcdB A2FD|EFGA BABd|gefdB2(AB)|
dcde dAFA|dcdB AFDF|G2(BG)F2(AF)|GABcd2|]


